icons/svg/placeholder_18.svg

<?xml version="1.0" encoding="UTF-8"?>
<svg width="18px" height="18px" viewBox="0 0 18 18" version="1.1" xmlns="http://www.w3.org/2000/svg" xmlns:xlink="http://www.w3.org/1999/xlink">
    <!-- Generator: Sketch 57.1 (83088) - https://sketch.com -->
    <title>placeholder_18</title>
    <desc>Created with Sketch.</desc>
    <g id="Icons-Webex" stroke="none" stroke-width="1" fill="none" fill-rule="evenodd">
        <g id="content/placeholder_18" fill="#171B1F">
            <path d="M3,0 L15,0 C16.6568542,0 18,1.34314575 18,3 L18,15 C18,16.6568542 16.6568542,18 15,18 L3,18 C1.34314575,18 0,16.6568542 0,15 L0,3 C0,1.34314575 1.34314575,0 3,0 Z M3,1 C1.8954305,1 1,1.8954305 1,3 L1,15 C1,16.1045695 1.8954305,17 3,17 L15,17 C16.1045695,17 17,16.1045695 17,15 L17,3 C17,1.8954305 16.1045695,1 15,1 L3,1 Z" id="fill"></path>
        </g>
    </g>
</svg>

<svg width="18" height="18" xmlns="http://www.w3.org/2000/svg"><path d="M3 0h12a3 3 0 013 3v12a3 3 0 01-3 3H3a3 3 0 01-3-3V3a3 3 0 013-3zm0 1a2 2 0 00-2 2v12a2 2 0 002 2h12a2 2 0 002-2V3a2 2 0 00-2-2H3z" fill="#171B1F" fill-rule="evenodd"/></svg>
